X: 42541
T: When Are You Coming Over?
R: reel
M: 4/4
K: Adorian
|a2ed^cAA=c|BDGBdef^g|~aaed^cAAF|E/E/E^GB^cAAe|
(ga)ed^cAA=c|BDGBdefd|~eegefgaf|gB~BBdAB/^c/d|
ea~aaAB^cd|eae^c~dd^cd|ea~aaAB=cA|BDGBdAB/^c/d|
ea~aaAB^cd|eae^c~dd^cd|~eegefgaf|gBB/B/B def^g|

